packages/bezier-icons/icons/crop.svg

<svg width="24" height="24" viewBox="0 0 24 24" fill="none" xmlns="http://www.w3.org/2000/svg">
<path fill-rule="evenodd" clip-rule="evenodd" d="M5 7V16C5 17.6569 6.34314 19 8 19H17V23H19V19H23V17H19L19 8C19 6.34315 17.6569 5 16 5L7 5V1H5V5L1 5V7L5 7ZM7 7V16C7 16.5523 7.44771 17 8 17H17L17 8C17 7.44771 16.5523 7 16 7L7 7Z" fill="#313234"/>
</svg>

<svg xmlns="http://www.w3.org/2000/svg" width="24" height="24" fill="none" viewBox="0 0 24 24"><path fill="#313234" fill-rule="evenodd" d="M5 7v9a3 3 0 0 0 3 3h9v4h2v-4h4v-2h-4V8a3 3 0 0 0-3-3H7V1H5v4H1v2zm2 0v9a1 1 0 0 0 1 1h9V8a1 1 0 0 0-1-1z" clip-rule="evenodd"/></svg>
